img/card-light.svg

<svg width="16" height="16" viewBox="0 0 16 16" fill="none" xmlns="http://www.w3.org/2000/svg">
<path d="M10.9553 1.05988C11.0443 1.10953 11.1132 1.18674 11.1506 1.27892C11.1881 1.37109 11.192 1.47277 11.1617 1.56735L9.52449 6.68756H12.5453C12.6341 6.68753 12.7209 6.71252 12.7951 6.75944C12.8693 6.80637 12.9276 6.87317 12.9628 6.95162C12.998 7.03006 13.0085 7.1167 12.9931 7.20085C12.9777 7.285 12.9371 7.36298 12.8762 7.42515L5.60372 14.8622C5.53336 14.9342 5.43972 14.9812 5.33807 14.9954C5.23643 15.0097 5.13277 14.9904 5.04399 14.9406C4.95521 14.8909 4.88655 14.8137 4.8492 14.7216C4.81184 14.6295 4.808 14.528 4.8383 14.4335L6.47551 9.31241H3.45471C3.36594 9.31245 3.27909 9.28746 3.20491 9.24053C3.13072 9.19361 3.07243 9.1268 3.03724 9.04836C3.00205 8.96992 2.99149 8.88327 3.00688 8.79912C3.02226 8.71497 3.06291 8.637 3.12381 8.57483L10.3963 1.13775C10.4666 1.06583 10.5601 1.01891 10.6616 1.00461C10.7631 0.990315 10.8666 1.00949 10.9553 1.05901V1.05988Z" fill="#3F9D83"/>
</svg>

<svg width="16" height="16" fill="none" xmlns="http://www.w3.org/2000/svg"><path d="M10.955 1.06c.09.05.158.127.196.219a.422.422 0 0 1 .01.288l-1.637 5.12h3.021c.09 0 .176.026.25.072a.442.442 0 0 1 .168.193.422.422 0 0 1-.087.473l-7.272 7.437a.469.469 0 0 1-.56.078.442.442 0 0 1-.195-.218.422.422 0 0 1-.01-.288l1.637-5.122H3.455a.467.467 0 0 1-.25-.071.442.442 0 0 1-.168-.193.422.422 0 0 1 .087-.473l7.272-7.437a.47.47 0 0 1 .559-.079Z" fill="#3F9D83"/></svg>
